app/assets/images/sharing_tags/icons/facebook.svg

<svg xmlns="http://www.w3.org/2000/svg" viewBox="0 0 77 76" version="1.1" width="100%" height="100%">
   <g opacity="1">
        <desc shapeID="1" type="0" basicInfo-basicType="0" basicInfo-roundedRectRadius="12" basicInfo-polygonSides="6" basicInfo-starPoints="5" bounding="rect(-37.2232,-37.0244,74.4463,74.0487)" text="" font-familyName="" font-pixelSize="20" font-bold="0" font-underline="0" font-alignment="1" strokeStyle="0" markerStart="0" markerEnd="0" shadowEnabled="0" shadowOffsetX="0" shadowOffsetY="2" shadowBlur="4" shadowOpacity="160" blurEnabled="0" blurRadius="4" transform="matrix(1,0,0,1,38.6712,38.5094)" pers-center="0,0" pers-size="0,0" pers-start="0,0" pers-end="0,0" locked="0" mesh="" flag=""/>
        <path class="fb-sharing-tags-icon-fill sharing-tags-icon-fill" d="M38.6704 1.48506C59.2277 1.48506 75.8943 18.0614 75.8943 38.5094 75.8943 58.959 59.2277 75.5338 38.6704 75.5338 18.113 75.5338 1.44801 58.959 1.44801 38.5094 1.44801 18.0614 18.113 1.48506 38.6704 1.48506Z" style=""/>

        <desc shapeID="2" type="0" basicInfo-basicType="0" basicInfo-roundedRectRadius="12" basicInfo-polygonSides="6" basicInfo-starPoints="5" bounding="rect(-9.85016,-21.2135,19.7003,42.4269)" text="" font-familyName="" font-pixelSize="20" font-bold="0" font-underline="0" font-alignment="1" strokeStyle="0" markerStart="0" markerEnd="0" shadowEnabled="0" shadowOffsetX="0" shadowOffsetY="2" shadowBlur="4" shadowOpacity="160" blurEnabled="0" blurRadius="4" transform="matrix(1,0,0,1,38.6712,38.5093)" pers-center="0,0" pers-size="0,0" pers-start="0,0" pers-end="0,0" locked="0" mesh="" flag=""/>
        <path class="fb-sharing-tags-icon-in sharing-tags-icon-in" d="M33.1581 38.5352C33.2668 38.6709 33.2052 39.6154 33.2052 39.793L33.2117 59.7227 41.8988 59.7227C41.9491 54.4771 41.9004 49.0926 41.9004 43.8228 41.9004 43.7469 41.8826 38.7161 41.9069 38.6111 41.9232 38.5433 41.9248 38.5514 41.9426 38.5223 41.954 38.5239 47.4695 38.5675 47.661 38.5207L47.7584 38.4933 48.5213 31.2198 41.928 31.2182C41.9021 30.1445 41.9329 29.0402 41.9345 27.9617 41.9345 26.9785 41.9102 25.7643 42.4994 25.2235L48.4872 24.6245 48.4775 17.3284C47.3445 17.259 46.0005 17.322 44.8449 17.322 43.6405 17.322 42.4231 17.2961 41.2398 17.3752 38.9852 17.5238 37.1641 18.1922 35.8477 19.3078 33.9388 22.3512 33.2003 19.7373 33.1857 31.2214L28.821 31.2231 28.8291 38.5304 33.1581 38.5352Z" style=""/>
   </g>
</svg>

<svg xmlns="http://www.w3.org/2000/svg" viewBox="0 0 77 76"><path class="fb-sharing-tags-icon-fill sharing-tags-icon-fill" d="M38.67 1.485c20.558 0 37.224 16.576 37.224 37.024 0 20.45-16.666 37.024-37.224 37.024-20.557 0-37.222-16.575-37.222-37.025S18.113 1.484 38.67 1.484z"/><path class="fb-sharing-tags-icon-in sharing-tags-icon-in" d="M33.158 38.535c.11.136.047 1.08.047 1.258l.007 19.93H41.9c.05-5.246 0-10.63 0-15.9 0-.076-.017-5.107.007-5.212.016-.067.018-.06.036-.088.01.002 5.526.046 5.718 0l.098-.03.763-7.272-6.592-.002c-.026-1.073.005-2.178.007-3.256 0-.983-.025-2.198.564-2.738l5.987-.6-.01-7.296c-1.133-.07-2.476-.006-3.632-.006-1.204 0-2.422-.026-3.605.053-2.255.15-4.076.817-5.392 1.933-1.91 3.043-2.648.43-2.662 11.913l-4.365.003.01 7.307 4.328.005z"/></svg>
